src/containers/site/SiteExchangeScreen/asset/exchange_feature_2.svg

<svg width="77" height="66" viewBox="0 0 77 66" fill="none" xmlns="http://www.w3.org/2000/svg">
<path d="M38.5 66C54.7924 66 68 53.2401 68 37.5C68 21.7599 54.7924 9 38.5 9C22.2076 9 9 21.7599 9 37.5C9 53.2401 22.2076 66 38.5 66Z" fill="url(#paint0_linear)"/>
<path d="M36.3347 32.9334L52.9821 26.1131C53.7322 25.8093 54.5689 26.1407 54.8863 26.831C55.1459 27.4109 54.944 28.1012 54.4535 28.4601L40.2585 39.2015C38.5851 40.4716 36.1615 40.1955 34.8344 38.594C33.5072 36.9924 33.7957 34.673 35.4691 33.4028C35.7288 33.2371 36.0461 33.0714 36.3347 32.9334Z" fill="white"/>
<path d="M64.0705 65C63.4933 65 62.8872 64.774 62.4254 64.3503C61.5307 63.4746 61.5307 62.0339 62.4254 61.1582C68.8325 54.887 72.3534 46.5819 72.3534 37.7119C72.3534 19.435 57.1728 4.54802 38.4711 4.54802C19.7695 4.54802 4.61769 19.4068 4.61769 37.6836C4.61769 46.5254 8.13868 54.8588 14.5457 61.1299C15.4404 62.0056 15.4404 63.4463 14.5457 64.322C13.651 65.1977 12.1792 65.1977 11.2845 64.322C4.01162 57.2034 0 47.7401 0 37.6836C0 16.9209 17.2586 0 38.5 0C59.7414 0 77 16.8927 77 37.6836C77 47.7401 72.9884 57.2034 65.7155 64.322C65.2537 64.774 64.6765 65 64.0705 65Z" fill="url(#paint1_linear)"/>
<defs>
<linearGradient id="paint0_linear" x1="8.9936" y1="66.0108" x2="68.0065" y2="66.0108" gradientUnits="userSpaceOnUse">
<stop stop-color="#FFB833"/>
<stop offset="1" stop-color="#FF964D"/>
</linearGradient>
<linearGradient id="paint1_linear" x1="0.012843" y1="64.9916" x2="76.9872" y2="64.9916" gradientUnits="userSpaceOnUse">
<stop stop-color="#658BF5"/>
<stop offset="1" stop-color="#8DB0FF"/>
</linearGradient>
</defs>
</svg>

<svg width="77" height="66" fill="none" xmlns="http://www.w3.org/2000/svg"><path d="M38.5 66C54.792 66 68 53.24 68 37.5S54.792 9 38.5 9 9 21.76 9 37.5 22.208 66 38.5 66z" fill="url(#paint0_linear)"/><path d="M36.335 32.933l16.647-6.82c.75-.304 1.587.028 1.904.718.26.58.058 1.27-.433 1.63L40.258 39.2c-1.673 1.27-4.097.995-5.424-.607-1.327-1.602-1.038-3.921.635-5.191.26-.166.577-.332.866-.47z" fill="#fff"/><path d="M64.07 65a2.47 2.47 0 01-1.645-.65 2.234 2.234 0 010-3.192c6.407-6.271 9.928-14.576 9.928-23.446 0-18.277-15.18-33.164-33.882-33.164-18.701 0-33.853 14.859-33.853 33.136 0 8.841 3.52 17.175 9.928 23.446a2.234 2.234 0 010 3.192 2.353 2.353 0 01-3.261 0C4.011 57.203 0 47.74 0 37.684 0 16.92 17.259 0 38.5 0S77 16.893 77 37.684c0 10.056-4.012 19.52-11.284 26.638A2.32 2.32 0 0164.07 65z" fill="url(#paint1_linear)"/><defs><linearGradient id="paint0_linear" x1="8.994" y1="66.011" x2="68.007" y2="66.011" gradientUnits="userSpaceOnUse"><stop stop-color="#FFB833"/><stop offset="1" stop-color="#FF964D"/></linearGradient><linearGradient id="paint1_linear" x1=".013" y1="64.992" x2="76.987" y2="64.992" gradientUnits="userSpaceOnUse"><stop stop-color="#658BF5"/><stop offset="1" stop-color="#8DB0FF"/></linearGradient></defs></svg>
